X: 3363
M: C
L: 1/8
K: Gm
(dc) |\
fedc Bced | (3cdB (3ABG F2(dc) |\
edcB ceAc | B2G2G2 :|
|: (^fg) |\
bgdB gdBG | DGBd gdbg |\
afcA fcAF | CFAc BAG^F |\
edcB ceAc | B2G2G2 :|


